X:54
T:Les deux frères (G)
T:GAVOTTE DE 'L AVEN 3
C:Toon Van Mierlo
M:4/4
L:1/8
Q:1/4=70
K:G
V:1
|:zd d/2e/2f gBAB|cBGE B/2c/2A A/2B/2c/2e/2|
zd d/2e/2f gBAB|BccB G2- GG:|
|:z b b/2a/2g fedA|.B2 z c cBGE|
z E A/2B/2c/2e/2 .d3 c|cBAG G2- G- G:|
V:2
|:zd/2B/2 de dBde|GEB,C DEFG|
zd/2B/2 de dBde|GEFG GA B2:|
|:zb za zg fe|.d2 ze edBG|
zc ce .B3 e|edcB B4:|
